!!!!SEGMENT: pl-gd--ee-2628--006-002_stabile-annibale--il-terzo-libro-de-madrigali-a-cinque-voci-amorosetto-neo.krn
!!!cenid: 15xx:1069
!!!COM: Stabile, Annibale
!!!COM-rismID: pe30009662
!!!CDT: ~1535-1595/04
!!!CNT: Italian
!!!GTL: Il terzo libro de madrigali a cinque voci
!!!OTL: Amorosetto Neo
!!!OMV: 002
!!!PDT: 1585
!!!AGN:
!!!YEC: Copyright 2022 Narodowy Instytut Fryderyka Chopina (https://polishscores.org)
!!!YEM: License CC-BY-4.0 (https://creativecommons.org/licenses/by/4.0)
!!!SMS-siglum: PL-GD
!!!SMS-shelfmark: Ee 2628
!!!SMS-variant:
!!!SMS-altvar:
!!!SMS-shelfwork: 006-002 G
!!!NIFC-rismSourceID: 1001203361
!!!NIFC-rismChildID: 990060530
!!!NIFC-islandoraID: pl-gd:66139
!!!URL-pdf-islandora: https://repozytorium.nifc.pl/islandora/object/pl-gd%3A66139/datastream/PDF/view
!!!URL-scan: https://polish.musicsources.pl/pl/lokalizacje/galeria/klocki-introligatorskie/673 @EN{Scan on Polish Music Sources Website} @PL{Skany w portalu Dziedzictwo Muzyki Polskiej w otwartym dostępie}
!!!IIIF:
!!!ONB-nifc: UWAGA: Canto: s. 90-101, Tenore: s. 246-257, Basso: s. 402-413, Quinto: s. 724-735. Dla głosu Alto proszę skorzystać z https://pbc.gda.pl/dlibra/publication/87582/edition/79411/content, str. 25-48. Uwaga: utwory podzielone wg spisu treści dostępnych na końcu ksiąg – proszę sprawdzać sąsiednie tytuły. Głos Quinto proszę umieszczać wg ambitusu (może się różnić w zależności od utworu).
!!!AIN: 1 alto 1 bass 1 soprn 1 tenor 1 vox
!!!key: C
**kern	**text	**kern	**text	**kern	**text	**kern	**text	**kern	**text
*part5	*	*part4	*	*part3	*	*part2	*	*part1	*
*staff5	*	*staff4	*	*staff3	*	*staff2	*	*staff1	*
*I"BASSO	*	*I"TENORE	*	*I"ALTO	*	*I"CANTO	*	*I"QVINTO	*
*I'B	*	*I'T	*	*I'A	*	*I'S	*	*I'V	*
*ICvox	*	*ICvox	*	*ICvox	*	*ICvox	*	*ICvox	*
*Ibass	*	*Itenor	*	*Ialto	*	*Isoprn	*	*Ivox	*
*clefC4	*	*clefC3	*	*clefC2	*	*clefG2	*	*clefC3	*
*k[]	*	*k[]	*	*k[]	*	*k[]	*	*k[]	*
*C:	*	*C:	*	*C:	*	*C:	*	*C:	*
*M2/1	*	*M2/1	*	*M2/1	*	*M2/1	*	*M2/1	*
*met(C)	*	*met(C)	*	*met(C)	*	*met(C)	*	*met(C)	*
=1-	=1-	=1-	=1-	=1-	=1-	=1-	=1-	=1-	=1-
!LO:TX:b:i:t=AMoroſetto neo.	!	!	!	!	!	!	!	!	!
00r	.	2r	.	2r	.	1dd	A-	2r	.
.	.	2G/	A-	2b\	A-	.	.	2g\	A-
.	.	2.d\	-Mo-	2.a\	-Mo-	2.dd\	-Mo-	2.f\	-Mo-
.	.	4c#X/	-ro-	4a\	-ro-	4ee\	-ro-	4e\	-ro-
=2-	=2-	=2-	=2-	=2-	=2-	=2-	=2-	=2-	=2-
.	.	4d\	-ſet-	4a\	-ſet-	4ff#X\	-ſet-	2d\	-ſet-
.	.	4G/	-to	4b\	-to	4gg\	-to	.	.
.	.	2cny/	ne-	2cc\	ne-	2ee\	ne-	4e\	-to
.	.	.	.	.	.	.	.	4.g\	ne-
.	.	2d\	-o	2a\	-o	1dd	-o	.	.
.	.	.	.	.	.	.	.	8f#X\	.
.	.	.	.	.	.	.	.	4f#\	.
.	.	4r	.	4r	.	.	.	2g\	-o
.	.	4g\	Che	4g\	Che	.	.	.	.
=3-	=3-	=3-	=3-	=3-	=3-	=3-	=3-	=3-	=3-
00r	.	4d\	tra	4.a\	tra	2r	.	1r	.
.	.	4f\	le	.	.	.	.	.	.
.	.	.	.	8b\	le	.	.	.	.
*	*	*	*	*custos:cc	*	*	*	*	*
!	!	!	!	!LO:LB:g=original	!	!	!	!	!
.	.	4e\	per-	4cc\	per-	4r	.	.	.
.	.	4d\	-le e	2dd\	-le e	4dd\	Che	.	.
.	.	2e\	gl`o-	.	.	4gg\	tra	2r	.
.	.	.	.	4cc\	gl`o-	4ee\	le	.	.
*	*	*custos:d	*	*	*	*	*	*	*
!	!	!LO:LB:g=original	!	!	!	!	!	!	!
.	.	4d\	-ſtri	4dd\	-ſtri	4ffny\	per-	4r	.
*	*	*	*ij	*	*ij	*	*	*	*
.	.	4f\	Che	4a\	Che	4dd\	-le e	4d\	Che
*	*	*	*	*	*	*custos:ee	*	*	*
!	!	!	!	!	!	!LO:LB:g=original	!	!	!
=4-	=4-	=4-	=4-	=4-	=4-	=4-	=4-	=4-	=4-
.	.	4a\	tra	4cc\	tra	2ee\	gl`o-	4A/	tra
.	.	4e\	le	4g\	le	.	.	4c/	le
*	*	*	*	*	*	*	*	*custos:B-	*
!	!	!	!	!	!	!	!	!LO:LB:g=original	!
.	.	4f\	per-	4b-X\	per-	1dd	-ſtri	4B-X/	per-
.	.	4g\	-le e	4b-\	-le e	.	.	4G/	-le e
.	.	2f#X\	gl`o-	2a\	gl`o-	.	.	2d\	gl`o-
.	.	2f#\	-ſtri	2a\	-ſtri	2r	.	4d\	-ſtri
.	.	.	.	.	.	.	.	4d\	Del
*	*	*	*Xij	*	*Xij	*	*	*	*
=5-	=5-	=5-	=5-	=5-	=5-	=5-	=5-	=5-	=5-
00r	.	1r	.	4r	.	4r	.	4e\	mio
.	.	.	.	4a\	Del	2dd\	Del	4f#X\	bel
.	.	.	.	4b\	mio	.	.	4g\	ſol
.	.	.	.	4cc\	ſol	4ee\	mio	4e\	tu
.	.	2r	.	4dd\	bel	4ff#X\	bel	2d\	moſ-
.	.	.	.	4b\	ti	2gg\	ſol	.	.
.	.	4r	.	2a\	moſ-	.	.	2d\	-tri
.	.	4d\	Del	.	.	4ff#\	ti	.	.
=6-	=6-	=6-	=6-	=6-	=6-	=6-	=6-	=6-	=6-
.	.	4e\	mio	4g\	-tri	4ee\	mo-	4r	.
*	*	*	*	*	*ij	*	*	*	*ij
.	.	4f#X\	ſol	4a\	Del	2dd\	.	4d\	Del
.	.	4g\	bel	4b\	mio	.	.	4G/	mio
.	.	4e\	ti	4g\	ſol	4cc\	.	4g\	bel
.	.	2d\	moſ-	4a\	bel	4.dd\	.	4f#X\	ſol
.	.	.	.	4b\	ti	.	.	4g\	tu
.	.	.	.	.	.	16cc\	.	.	.
.	.	.	.	.	.	16b\	.	.	.
*	*	*	*	*	*	*custos:a	*	*	*
!	!	!	!	!	!	!LO:LB:g=original	!	!	!
.	.	2d\	-tri	2dd\	moſ-	2a/	.	2f#X\	moſ-
=7-	=7-	=7-	=7-	=7-	=7-	=7-	=7-	=7-	=7-
1r	.	1r	.	1b	-tri	1dd	-ſtri	1g	-tri
1G	Con	2r	.	2r	.	2r	.	2r	.
*	*	*	*	*	*Xij	*	*	*	*Xij
.	.	2B/	Con	2g\	Con	2dd\	Con	2d\	Con
*	*	*	*	*	*	*	*	*custos:d	*
!	!	!	!	!	!	!	!	!LO:LB:g=original	!
=8-	=8-	=8-	=8-	=8-	=8-	=8-	=8-	=8-	=8-
2G/	qual	2B/	qual	2g\	qual	2gg\	qual	2d\	qual
*	*	*custos:A	*	*	*	*	*	*	*
!	!	!LO:LB:g=original	!	!	!	!	!	!	!
2D/	nuo-	2A/	nuo-	2a\	nuo-	2ffny\	nuo-	2d\	nuo-
1E	-ua ar-	1e	-ua ar-	1g#X	-ua ar-	1ee	-ua ar-	1Bny	-a ar-
=9-	=9-	=9-	=9-	=9-	=9-	=9-	=9-	=9-	=9-
2E/	-te	2e\	-te	2g#X\	-te	1ee	-te	2B/	-te
*custos:A	*	*	*	*	*	*	*	*	*
!LO:LB:g=original	!	!	!	!	!	!	!	!	!
4A/	iui	4e\	iui	4a\	iui	.	.	4c#X/	iui
8A/	.	8e\	.	8a\	.	.	.	8c#/	.
8A/	ti	8e\	ti	8a\	ti	.	.	8c#/	ti
*	*	*	*	*custos:a	*	*	*	*	*
!	!	!	!	!LO:LB:g=original	!	!	!	!	!
4G/	po-	4g\	po-	4b\	po-	1r	.	4d\	po-
4E/	-ſe a-	4g\	-ſe a-	4cc\	-ſe a-	.	.	4e\	-ſe a-
2G/	-mo-	2g\	-mo-	2b\	-mo-	.	.	2d\	-mo-
=10-	=10-	=10-	=10-	=10-	=10-	=10-	=10-	=10-	=10-
1D	-re	2f#X\	-re	2a\	-re	2r	.	1d	-re
*	*	*	*ij	*	*	*	*	*	*
.	.	4a\	iui	2r	.	4ff\	iui	.	.
.	.	8a\	.	.	.	8ff\	.	.	.
.	.	8a\	ti	.	.	8ff\	ti	.	.
1r	.	4g\	po-	2r	.	4ee\	po-	2r	.
.	.	4e\	-ſe a-	.	.	4ee\	-ſe a-	.	.
.	.	2f#\	-mo-	4a\	iui	2dd\	-mo-	4d\	iui
.	.	.	.	8a\	.	.	.	8d\	.
.	.	.	.	8b\	ti	.	.	8d\	ti
=11-	=11-	=11-	=11-	=11-	=11-	=11-	=11-	=11-	=11-
4A/	iui	2e\	-re	4.cc\	po-	2ee\	-re	8cny/	po-
.	.	.	.	.	.	.	.	8d\	.
8A/	.	.	.	.	.	.	.	8e\	.
8A/	ti	.	.	16b\	.	.	.	8fny\	.
.	.	.	.	16a\	.	.	.	.	.
*	*	*	*Xij	*	*	*	*	*	*
4G/	po-	4e\	iui	4b\	.	2r	.	4g\	.
4E/	-ſe a-	8e\	.	4cc\	-ſe a-	.	.	4g\	-ſe a-
.	.	8e\	ti	.	.	.	.	.	.
*custos:F	*	*custos:c	*	*	*	*	*	*custos:a	*
!LO:LB:g=original	!	!LO:LB:g=original	!	!	!	!	!	!LO:LB:g=original	!
8F/	-mo-	4c/	po-	1cc	-mo-	1r	.	2a\	-mo-
8G/	.	.	.	.	.	.	.	.	.
8A\	.	4fny\	-ſe a-	.	.	.	.	.	.
8B\	.	.	.	.	.	.	.	.	.
2c\	.	2e\	-mo-	.	.	.	.	2g\	-re
=12-	=12-	=12-	=12-	=12-	=12-	=12-	=12-	=12-	=12-
1F	-re	1f	-re	1a	-re	2r	.	1r	.
.	.	.	.	.	.	2.ff\	Dol-	.	.
0r	.	0r	.	2.cc\	Dol-	.	.	2.a\	Dol-
.	.	.	.	.	.	4ee\	-ce	.	.
.	.	.	.	.	.	2ff\	la-	.	.
.	.	.	.	4a\	-ce	.	.	4d\	-ce
*	*	*	*	*	*	*custos:ee	*	*	*
!	!	!	!	!	!	!LO:LB:g=original	!	!	!
=13-	=13-	=13-	=13-	=13-	=13-	=13-	=13-	=13-	=13-
.	.	.	.	2cc\	la-	4ee\	-dro	2a\	la-
.	.	.	.	.	.	4cc\	del	.	.
.	.	.	.	4b\	-dro	2ee\	co-	4g\	-dro
.	.	.	.	2cc\	del	.	.	4e\	del
!LO:TX:t=P:problem:VHV nie wyświetla pauzy	!	!	!	!	!	!	!	!	!
1r	.	2r	.	.	.	4a/	-re	4.f\	co-
*	*	*	*	*	*	*	*ij	*	*
.	.	.	.	2a\	co-	2cc\	Dol-	.	.
.	.	.	.	.	.	.	.	8e\	.
.	.	2.f\	Dol-	.	.	.	.	2d\	.
.	.	.	.	8g\	.	4b/	-ce	.	.
.	.	.	.	8f\	.	.	.	.	.
*	*	*	*	*custos:a	*	*	*	*	*
!	!	!	!	!LO:LB:g=original	!	!	!	!	!
=14-	=14-	=14-	=14-	=14-	=14-	=14-	=14-	=14-	=14-
2r	.	.	.	4a\	.	2cc\	la-	2c\	-re
.	.	4e\	-ce	4g\	-re	.	.	.	.
2.B-X\	Dol-	2f\	la-	2r	.	2.dd\	-dro	4r	.
*	*	*	*	*	*	*	*	*	*ij
.	.	.	.	.	.	.	.	4f\	Dol-
.	.	4g\	-dro	1r	.	.	.	4d\	-ce
4A/	-ce	4a\	del	.	.	4cc\	del	2f\	la-
2B-\	la-	4.d\	co-	.	.	2b-X/	co-	.	.
.	.	.	.	.	.	.	.	4d\	-dro
.	.	8e\	.	.	.	.	.	.	.
=15-	=15-	=15-	=15-	=15-	=15-	=15-	=15-	=15-	=15-
4F/	-dro	2f\	.	1r	.	1a	-re	4c\	del
4D/	del	.	.	.	.	.	.	4.d\	co-
2A/	co-	2e\	-re	.	.	.	.	.	.
.	.	.	.	.	.	.	.	8c#X/	.
.	.	.	.	.	.	.	.	4c#/	.
*	*	*	*	*	*	*	*Xij	*	*
4D/	-re	2a\	Dol-	2r	.	2.ff\	Dol-	2d\	-re
*	*ij	*	*	*	*	*	*	*	*
2d\	Dol-	.	.	.	.	.	.	.	.
.	.	4f\	-ce	2a\	Dol-	.	.	2r	.
4c\	-ce	2a\	la-	.	.	4ee\	-ce	.	.
*	*	*	*	*	*	*	*	*	*Xij
=16-	=16-	=16-	=16-	=16-	=16-	=16-	=16-	=16-	=16-
2d\	la-	.	.	4f\	-ce	2ff\	la-	1r	.
!	!	!x	!	!	!	!	!	!	!
.	.	4f\	-dro	4.a\	la-	.	.	.	.
*	*	*custos:a	*	*	*	*	*	*	*
!	!	!LO:LB:g=original	!	!	!	!	!	!	!
4c\	-dro	4a\	del	.	.	4ee\	-dro	.	.
.	.	.	.	8e/	-dro	.	.	.	.
4e\	del	4.g\	co-	4g\	del	4cc\	del	.	.
*custos:d	*	*	*	*	*	*	*	*custos:d	*
!LO:LB:g=original	!	!	!	!	!	!	!	!LO:LB:g=original	!
2d\	co-	.	.	2a\	co-	2dd\	co-	2r	.
.	.	8f#X\	.	.	.	.	.	.	.
.	.	4f#\	.	.	.	.	.	.	.
1G/	-re	2g\	-re	2b\	-re	2dd\	-re	4r	.
.	.	.	.	.	.	.	.	4d\	Ce-
=17-	=17-	=17-	=17-	=17-	=17-	=17-	=17-	=17-	=17-
.	.	0r	.	2r	.	4r	.	4B/	-da al
.	.	.	.	.	.	4dd\	Ce-	4g\	tuo
*	*Xij	*	*	*	*	*custos:b	*	*	*
!	!	!	!	!	!	!LO:LB:g=original	!	!	!
2r	.	.	.	4r	.	4bny/	-da	8g\	ne-
.	.	.	.	.	.	.	.	8f\	.
.	.	.	.	4g\	Ce-	4gg\	al tuo	8e\	.
.	.	.	.	.	.	.	.	8d\	.
0r	.	.	.	4e/	-da al	8gg\	ne-	2cny/	.
.	.	.	.	.	.	8ff\	.	.	.
.	.	.	.	4cc\	tuo	8ee\	.	.	.
.	.	.	.	.	.	8dd\	.	.	.
.	.	.	.	8cc\	ne-	8ee\	.	2c/	-gro a-
.	.	.	.	8b\	.	8dd\	.	.	.
.	.	.	.	8a\	.	8cc\	.	.	.
.	.	.	.	8g\	.	8b\	.	.	.
=18-	=18-	=18-	=18-	=18-	=18-	=18-	=18-	=18-	=18-
.	.	2r	.	4f\	.	4a/	.	1d	-dor-
.	.	.	.	4g\	-gro a-	4g/	-gro a-	.	.
.	.	2d\	Ce-	2f#X\	-dor-	2a/	-dor-	.	.
4r	.	4B/	-da al	2g\	-no	1g	-no	2G/	-no
4G/	Ce-	4g\	tuo	.	.	.	.	.	.
*	*	*	*	*custos:g	*ij	*	*	*	*
!	!	!	!	!LO:LB:g=original	!	!	!	!	!
4E/	-da al	8g\	ne-	4r	.	.	.	2r	.
.	.	8fny\	.	.	.	.	.	.	.
4c\	tuo	8e\	.	4g\	Ce-	.	.	.	.
.	.	8d\	.	.	.	.	.	.	.
=19-	=19-	=19-	=19-	=19-	=19-	=19-	=19-	=19-	=19-
8c\	ne-	4c/	.	4e\	-da al	0r	.	0r	.
8Bny\	.	.	.	.	.	.	.	.	.
8A\	.	4e\	-gro a-	4cc\	tuo	.	.	.	.
8G/	.	.	.	.	.	.	.	.	.
2.F/	.	4.A/	-dor-	8cc\	ne-	.	.	.	.
.	.	.	.	8b\	.	.	.	.	.
.	.	.	.	8a\	.	.	.	.	.
.	.	8B/	.	8g\	.	.	.	.	.
.	.	8c\	.	4a\	-gro	.	.	.	.
.	.	8d\	.	.	.	.	.	.	.
4E/	-gro a-	2e\	.	2g\	a-	.	.	.	.
2A/	-dor-	.	.	.	.	.	.	.	.
.	.	8d\	.	4f\	-dor-	.	.	.	.
.	.	8c\	.	.	.	.	.	.	.
*	*	*custos:B	*	*	*	*	*ij	*	*
!	!	!LO:LB:g=original	!	!	!	!	!	!	!
=20-	=20-	=20-	=20-	=20-	=20-	=20-	=20-	=20-	=20-
1G	-no	4.B/	.	1g	-no	2r	.	2d\	Ce-
.	.	8c/	.	.	.	.	.	.	.
.	.	4d\	.	.	.	2dd\	Ce-	4B/	-da al
.	.	4B/	-no	.	.	.	.	4g\	tuo
00r	.	0r	.	1r	.	4b\	-da al	8g\	ne-
.	.	.	.	.	.	.	.	8f\	.
.	.	.	.	.	.	4gg\	tuo	8e\	.
.	.	.	.	.	.	.	.	8d\	.
.	.	.	.	.	.	8gg\	ne-	2.c\	.
.	.	.	.	.	.	8ff\	.	.	.
.	.	.	.	.	.	8ee\	.	.	.
.	.	.	.	.	.	8dd\	.	.	.
=21-	=21-	=21-	=21-	=21-	=21-	=21-	=21-	=21-	=21-
.	.	.	.	2r	.	4ee\	.	.	.
.	.	.	.	.	.	4dd\	-gro a-	4d\	-gr`a-
*	*	*	*	*	*Xij	*	*	*custos:e	*
!	!	!	!	!	!	!	!	!LO:LB:g=original	!
.	.	.	.	2g\	Quan-	2cc#X\	-dor-	2e\	-dor-
*	*	*	*	*	*	*custos:dd	*	*	*
!	!	!	!	!	!	!LO:LB:g=original	!	!	!
.	.	4r	.	4a\	-do è	2dd\	-no	2d\	-no
.	.	4d\	Quan-	4a\	piu	.	.	.	.
.	.	4e\	-do è	4g\	chiar	2r	.	4r	.
.	.	4e\	piu	4e/	`il	.	.	4g\	Quan
*	*	*	*	*	*	*	*Xij	*	*
=22-	=22-	=22-	=22-	=22-	=22-	=22-	=22-	=22-	=22-
.	.	4d\	chiar`	8f\	gior-	2dd\	Quan-	4a\	-do è
.	.	.	.	8g\	.	.	.	.	.
.	.	4d\	il	8a\	.	.	.	4f\	piu
.	.	.	.	8b\	.	.	.	.	.
.	.	8c/	gior-	2cc\	.	4ee\	-do è	4g\	chiar`
.	.	8d\	.	.	.	.	.	.	.
.	.	8e\	.	.	.	4ee\	piu	4c/	il
.	.	8f\	.	.	.	.	.	.	.
2G/	Quan-	4.g\	.	2b\	-no	4dd\	chiar`	2d\	gior-
.	.	.	.	.	.	4b/	il	.	.
.	.	8f\	.	.	.	.	.	.	.
4A/	-do è	4e\	.	2r	.	8ccny\	gior-	2c/	-no
.	.	.	.	.	.	8dd\	.	.	.
4A/	piu	8d\	.	.	.	8ee\	.	.	.
.	.	8c\	.	.	.	8ff\	.	.	.
*custos:G	*	*custos:d	*	*	*ij	*	*	*	*ij
!LO:LB:g=original	!	!LO:LB:g=original	!	!	!	!	!	!	!
=23-	=23-	=23-	=23-	=23-	=23-	=23-	=23-	=23-	=23-
4G/	chiar-	4d\	.	2g\	Quan-	2gg\	.	4r	.
4E/	-`il	4G/	-no	.	.	.	.	4g\	Quan
*	*	*	*ij	*custos:a	*	*	*	*	*
!	!	!	!	!LO:LB:g=original	!	!	!	!	!
8F/	gior-	2r	.	4a\	-do è	1cc	-no	4f\	-do è
8G/	.	.	.	.	.	.	.	.	.
8A\	.	.	.	4a\	piu	.	.	4f\	piu
8B\	.	.	.	.	.	.	.	.	.
2c\	.	4r	.	4g\	chiar`	.	.	4e\	chiar`
.	.	4g\	Quan	4e\	il	.	.	4c\	il
2F/	-no	4a\	-do è	8f\	gior-	4r	.	1c\	gior-
.	.	.	.	8g\	.	.	.	.	.
.	.	4a\	piu	8a\	.	4ff\	il	.	.
.	.	.	.	8b\	.	.	.	.	.
=24-	=24-	=24-	=24-	=24-	=24-	=24-	=24-	=24-	=24-
1r	.	4g\	chiar`	4.cc\	.	4.ee\	gior-	.	.
.	.	4e\	il	.	.	.	.	.	.
.	.	.	.	8b\	.	8dd\	.	.	.
.	.	4.f\	gior-	8a\	.	8cc\	.	2F/	-no
.	.	.	.	8g\	.	8b\	.	.	.
.	.	.	.	4a\	.	4cc\	.	.	.
.	.	8e\	.	.	.	.	.	.	.
2G/	Ce-	8d\	.	00.g	-no	1b	-no	2r	.
.	.	8c\	.	.	.	.	.	.	.
.	.	4d\	.	.	.	.	.	.	.
4E/	-da al	2G/	-no	.	.	.	.	4r	.
*	*	*	*Xij	*	*Xij	*	*	*	*Xij
4G/	tuo	.	.	.	.	.	.	4d\	Ce-
=25-	=25-	=25-	=25-	=25-	=25-	=25-	=25-	=25-	=25-
8G/	ne-	0r	.	.	.	4r	.	4B/	-da al
8F/	.	.	.	.	.	.	.	.	.
8E/	.	.	.	.	.	4gg\	Ce-	4g\	tuo
8D/	.	.	.	.	.	.	.	.	.
*	*	*	*	*	*	*custos:ee	*	*custos:g	*
!	!	!	!	!	!	!LO:LB:g=original	!	!LO:LB:g=original	!
2.C/	.	.	.	.	.	4ee\	-da al	8g\	ne-
.	.	.	.	.	.	.	.	8f\	.
.	.	.	.	.	.	4gg\	tuo	8e\	.
.	.	.	.	.	.	.	.	8d\	.
.	.	.	.	.	.	4.gg\	neg-	4c/	.
4BB/	-gr` a-	.	.	.	.	.	.	4d\	-gro a-
.	.	.	.	.	.	8ff\	-ro a-	.	.
2C/	-dor-	.	.	.	.	2ee\	-dor-	2c/	-dor-
=26-	=26-	=26-	=26-	=26-	=26-	=26-	=26-	=26-	=26-
1G	-no	2r	.	.	.	1dd	-no	2B/	-no
.	.	2d\	Quan-	.	.	.	.	4r	.
.	.	.	.	.	.	.	.	4G/	Quan-
*custos:G	*	*	*	*	*	*	*	*	*
!LO:LB:g=original	!	!	!	!	!	!	!	!	!
1r	.	4e\	-do è	.	.	2r	.	4c/	-do è
.	.	4e\	piu	.	.	.	.	4c/	piu
.	.	4d\	chiar`	.	.	2dd\	Quan-	4B/	chiar`
.	.	4B/	il	.	.	.	.	4G/	il
*	*	*custos:c	*	*	*	*	*	*	*
!	!	!LO:LB:g=original	!	!	!	!	!	!	!
=27-	=27-	=27-	=27-	=27-	=27-	=27-	=27-	=27-	=27-
2r	.	8c/	gior-	.	.	4ee\	-do è	2c/	gior-
.	.	8d\	.	.	.	.	.	.	.
.	.	8e\	.	.	.	4ee\	piu	.	.
.	.	8f\	.	.	.	.	.	.	.
2G/	Quan-	2g\	.	.	.	4dd\	chia-	4B/	-no
.	.	.	.	.	.	4b/	-ro il	4d\	il
4A/	-do è	2e\	-no	2r	.	8cc\	gior-	2c/	gior-
.	.	.	.	.	.	8dd\	.	.	.
4A/	piu	.	.	.	.	8ee\	.	.	.
.	.	.	.	.	.	8ff\	.	.	.
4G/	chiar`	4r	.	2g\	Quan-	2gg\	.	2B/	-no
*	*	*	*ij	*	*	*	*	*	*
4E/	il	4g\	Quan-	.	.	.	.	.	.
=28-	=28-	=28-	=28-	=28-	=28-	=28-	=28-	=28-	=28-
8F/	gior-	4f\	-do è	4a\	-do è	1cc	no	2r	.
8G/	.	.	.	.	.	.	.	.	.
8A\	.	4f\	piu	4a\	piu	.	.	.	.
8B\	.	.	.	.	.	.	.	.	.
2c\	.	2e\	chia-	4g\	chia-	.	.	2g\	Quan-
.	.	.	.	4e/	-ro il	.	.	.	.
*	*	*	*	*	*	*	*	*custos:a	*
!	!	!	!	!	!	!	!	!LO:LB:g=original	!
2F/	-no	1c	-ro il	8f\	gior-	4r	.	4a\	-do è
.	.	.	.	8g\	.	.	.	.	.
.	.	.	.	8a\	.	4ff\	il	4a\	piu
.	.	.	.	8b\	.	.	.	.	.
*	*	*	*	*custos:cc	*	*	*	*	*
!	!	!	!	!LO:LB:g=original	!	!	!	!	!
2r	.	.	.	4cc\	.	8ee\	gior-	4g\	chia-
.	.	.	.	.	.	8dd\	.	.	.
.	.	.	.	4g\	-no	8cc\	.	4e\	-rol il
.	.	.	.	.	.	8b\	.	.	.
=29-	=29-	=29-	=29-	=29-	=29-	=29-	=29-	=29-	=29-
2r	.	2F/	gior-	2r	.	2a/	.	8f\	gior-
.	.	.	.	.	.	.	.	8e\	.
.	.	.	.	.	.	.	.	8d\	.
.	.	.	.	.	.	.	.	8c\	.
2d\	Quan-	2G/	-no	4r	.	1g	-no	4.B/	.
*	*	*	*	*	*ij	*	*	*	*
.	.	.	.	4dd\	Quan-	.	.	.	.
.	.	.	.	.	.	.	.	16A/	.
.	.	.	.	.	.	.	.	16B/	.
4e\	-do è	1r	.	4cc\	-do è	.	.	2c/	.
4e\	piu	.	.	4cc\	piu	.	.	.	.
4d\	chiar`	.	.	8b\	chiar`	2dd\	Quan-	2G/	-no.
.	.	.	.	8a\	il	.	.	.	.
4B\	il	.	.	8g\	gior-	.	.	.	.
.	.	.	.	8f\	.	.	.	.	.
*custos:c	*	*	*	*	*	*	*	*	*ij
!LO:LB:g=original	!	!	!	!	!	!	!	!	!
=30-	=30-	=30-	=30-	=30-	=30-	=30-	=30-	=30-	=30-
8c\	gior-	2r	.	8e/	.	4ee\	-do è	2r	.
8B\	.	.	.	8d/	.	.	.	.	.
8A\	.	.	.	8c/	.	4ee\	piu	.	.
8G/	.	.	.	8B/	.	.	.	.	.
4F/	.	2d\	Quan-	4A/	.	4dd\	chia-	4r	.
4G/	-no	.	.	4d/	.	4b/	-ro il	4g\	Quan-
2r	.	4e\	-do è	2c/	.	8cc\	gior-	2.g\	-do è
.	.	.	.	.	.	8dd\	.	.	.
.	.	4e\	piu	.	.	8ee\	.	.	.
.	.	.	.	.	.	8ff\	.	.	.
2G/	il	4d\	chiar`	4B/	-no	4.gg\	.	.	.
*	*	*	*	*	*Xij	*	*	*	*
.	.	4B/	il	4d/	piu	.	.	4G/	piu
.	.	.	.	.	.	8ff\	.	.	.
=31-	=31-	=31-	=31-	=31-	=31-	=31-	=31-	=31-	=31-
1C	gior-	8c/	gior-	4e/	chiar	4.ee\	.	4G/	chia-
.	.	8d\	.	.	.	.	.	.	.
.	.	8e\	.	4c/	`il	.	.	4G/	-rol il
.	.	8f\	.	.	.	8dd\	.	.	.
.	.	2g\	.	2e/	gior-	2cc\	.	2c/	gior-
!LO:N:vis=00	!	!LO:N:vis=00	!	!LO:N:vis=00	!	!LO:N:vis=00	!	!LO:N:vis=00	!
0.G	-no.	0.g	-no.	0.d	-no.	0.dd	-no.	0.B	-no.
==	==	==	==	==	==	==	==	==	==
*-	*-	*-	*-	*-	*-	*-	*-	*-	*-
!!!system-decoration: [(s1,s2,s3,s4,s5)]
!!!ENC: Filip Voros
!!!END: 2022-07-08
!!!ENC: Jan Barakat
!!!END: 2022-08-01
